X: 2281
T: PADDY SNAP
R: Irish Jig.
%R: slip-jig
B: James Kerr "Merry Melodies" v.2 p.30 #281
Z: 2016 John Chambers <jc:trillian.mit.edu>
M: 9/8
L: 1/8
K: Bb
|:\
vd2vB BAB dcB | ue2uc cdB AGF |\
vd2vB BAB dcB | ucde vF2vA B3 ::\
vf2vF FGE DFB | uG2uc cd=B cde |\
vf2F FGE DFB | cde F2A B3 :|
